X:1
T:Title
%%score { ( 1 3 ) | ( 2 4 ) }
L:1/8
M:4/4
K:Eb
V:1 treble nm="Grand Piano"
V:3 treble 
V:2 bass 
V:4 bass 
V:1
 z4 z2[Q:1/4=100] [EG][FA] | [GB]2 E2 A2 G2 | [DF]4 E2 EF | G2 [FB]2 [Fe]2 [Fe]2 |[M:3/4] [Fd]6 | %5
[M:1/4] [Fc][FB] |[M:4/4] z2 B2 z4 | [EG]4 [EF]2 c>c | c2 =A2 G2 A2 |[M:3/4] [B,B]6 | %10
[M:1/4] [B,GB][Ge] |[M:4/4] d2- [Ad-]>[Ad-] [Ad][FA][=EG][FA] | [_Gc]4 [=GB]2 [FA][EG] | %13
 [DF]2 [DF]>[EG] [FA]2 [GB]2 |[M:3/4] [EG]6 |[M:1/4] [B,GB][Ge] |[M:4/4] A2 z2 z4 | %17
 [_Gc]4 [=GB]2 [GB]>[GB] | c3 e e2 [Fd]2 |[M:3/4] e2- [Ae-]2 [Ge]2 |] %20
V:2
 z4 z2 [E,B,][E,B,] | [E,B,]2 [E,G,]2 [E,CE]2 [E,B,E]2 | [B,,A,]4 [E,G,]2 [E,G,][E,A,E] | %3
 [E,B,E]2 [D,B,]2 [C,=A,]2 [F,A,]2 |[M:3/4] [B,,B,]6 |[M:1/4] [C,A,][D,A,] | %6
[M:4/4] [E,G,E]2 .[E,G,E]2 [E,CE]2 [E,B,E]2 | [C,=A,]4 [C,A,]2 [F,A,E]>[F,A,E] | %8
 [F,=A,E]2 [F,CE]2 [F,B,E]2 [F,CE]2 |[M:3/4] B,,2 C,2 D,2 |[M:1/4] E,[E,B,] | %11
[M:4/4] [F,B,]2 [F,B,]>[F,B,] [B,,B,][B,,B,][B,,B,][B,,B,] | [E,=A,]4 [E,B,]2 [D,B,][E,B,] | %13
 [B,,B,]2 [B,,B,]2 [B,,B,]2 [B,,B,]2 |[M:3/4] [E,B,]2 E,2 E,2 |[M:1/4] E,[E,B,] | %16
[M:4/4] [F,B,]2 [F,B,]2 [B,,B,][B,,B,][B,,B,][B,,B,] | [E,=A,]4 [E,B,]2 [E,E]>[E,E] | %18
 [A,EA]3 [A,CA] [B,G]2[K:bass] [B,,B,]2 |[M:3/4] B,2 z2 z2 |] %20
V:3
 x8 | x8 | x8 | x8 |[M:3/4] x6 |[M:1/4] x2 |[M:4/4] e2 z _D A2 G2 | x8 | x8 |[M:3/4] D2 E2 F2 | %10
[M:1/4] x2 |[M:4/4] A2 z2 z4 | x8 | x8 |[M:3/4] z2 B,2 B,2 |[M:1/4] x2 | %16
[M:4/4] d2- [Ad-]2 [Ad][FA][=EG][FA] | x8 | x8 |[M:3/4] G2 z2 z2 |] %20
V:4
 x8 | x8 | x8 | x8 |[M:3/4] x6 |[M:1/4] x2 |[M:4/4] x8 | x8 | x8 |[M:3/4] x6 |[M:1/4] x2 | %11
[M:4/4] x8 | x8 | x8 |[M:3/4] x6 |[M:1/4] x2 |[M:4/4] x8 | x8 | x6[K:bass] x2 | %19
[M:3/4] E,2- [E,-C]2 [E,B,]2 |] %20

